X:1
T:Title
%%score 1 2
L:1/8
Q:1/4=95
M:3/4
K:F
V:1 treble nm="Grand Piano, Soprano"
V:2 bass nm="Choir Pad, When in Thy Courts I Stand"
V:1
 [FA]2 [FA][Fc] [FA]2 | [CF]2 D[CE] [CF]2 | [FA]2 [Ec][EG] [EG]2 | [EB]2 [FA][F_A] [F=A]2 | %4
w: By~Joseph~Lincoln~Hall * * *||||
 [FA]2 [Fc][FA] [^Fd]2 | [^Fc]2 [GB][FA] [GB]2 |[M:4/4] [Fd]2 [Fc]2- [Fc][FA] [CF]2 | [CG]2 [CF]6 | %8
w: ||||
 [Fc]2 [Fd]2 [Fc]4 | [FA][CF] [CE]6 | [Ec]2 [Ed]2 [Ec]4 | [DB][EB] [FA]6 | [Fc]2 [Fd]2 [Fc]4 | %13
w: |||||
 [_EA][Ec] [DB]6 | [Fd]2 [Fc]2- [Fc][FA] [CF]2 | [CG]2 [CF]6- | [CF]2 z2 z4 |] %17
w: ||||
V:2
 [F,C]2 [F,C][F,A,] [F,C]2 | [F,A,]2 [B,,B,][C,B,] [F,A,]2 | [F,A,]2 [C,G,][C,C] [C,C]2 | %3
 [C,C]2 [F,C][F,=B,] [F,C]2 | [F,C]2 [F,A,][F,A,] [D,A,]2 | [D,D]2 [G,D][D,D] [G,D]2 | %6
[M:4/4] [_A,=B,]2 [=A,C]2- [A,C][F,C] [C,A,]2 | [C,B,]2 [F,A,]6 | %8
 [F,A,]2 [F,A,]2 [F,A,]2 [C,A,][C,A,] | [F,A,][F,A,] [G,B,]2 [G,B,][G,B,] [G,B,]2 | %10
 [G,B,]2 [G,B,]2 [G,B,]2 [C,B,][C,B,] | [C,G,][C,C] [F,C]2 [F,C][F,C] [F,C]2 | %12
 [F,A,]2 [F,A,]2 [C,A,]2 [C,A,][C,A,] | [F,C][F,A,] [B,,B,]2 [B,,B,][B,,B,] [B,,B,]2 | %14
 [=B,,_A,]2 [C,=A,]2- [C,A,][C,C] [C,A,]2 | [C,B,]2 [F,A,]6- | [F,A,]2 z2 z4 |] %17

